proprietary/assets/icons/functioneel/versleutelen.svg

<svg height="48" width="48" xmlns="http://www.w3.org/2000/svg"><path d="m9 17.477-2.324-.676c-.301-.074-.227-.301-.227-.301h10.801c.449 0 .75-.301.75-.75v-10.801s.227-.074.301.152l.676 2.324h12.523v12.973a7.66 7.66 0 0 1 1.875-.223 7.61 7.61 0 0 1 1.875.223v-15.148c0-.824-.676-1.5-1.5-1.5h-15.898a1.48 1.48 0 0 0 -1.051.449l-11.102 11.102a1.48 1.48 0 0 0 -.449 1.051v23.398c0 .824.676 1.5 1.5 1.5h15.75v-3.75h-13.5zm32.926 14.773h-.676v-2.625c0-4.352-3.523-7.875-7.875-7.875s-7.875 3.523-7.875 7.875v2.625h-.676c-.449 0-.824.375-.824.824v10.352c0 .449.301.75.676.824 1.348.227 4.574.75 8.699.75s7.273-.449 8.699-.75a.88.88 0 0 0 .676-.824v-10.352c0-.449-.375-.824-.824-.824zm-7.426 6.375v3.375h-2.25v-3.375c-.449-.375-.75-.898-.75-1.5 0-1.051.824-1.875 1.875-1.875s1.875.824 1.875 1.875c0 .602-.301 1.125-.75 1.5zm3-6.375h-8.25v-2.625c0-2.25 1.875-4.125 4.125-4.125s4.125 1.875 4.125 4.125zm0 0"/></svg>

<svg xmlns="http://www.w3.org/2000/svg" width="48" height="48" fill="rgb(0%,0%,0%)" xmlns:v="https://vecta.io/nano"><path d="M9 17.477l-2.324-.676c-.301-.074-.227-.301-.227-.301H17.25c.449 0 .75-.301.75-.75V4.949s.227-.074.301.152l.676 2.324H31.5v12.973a7.66 7.66 0 0 1 1.875-.223 7.61 7.61 0 0 1 1.875.223V5.25c0-.824-.676-1.5-1.5-1.5H17.852a1.48 1.48 0 0 0-1.051.449L5.699 15.301a1.48 1.48 0 0 0-.449 1.051V39.75c0 .824.676 1.5 1.5 1.5H22.5V37.5H9zM41.926 32.25h-.676v-2.625c0-4.352-3.523-7.875-7.875-7.875S25.5 25.273 25.5 29.625v2.625h-.676c-.449 0-.824.375-.824.824v10.352c0 .449.301.75.676.824 1.348.227 4.574.75 8.699.75s7.273-.449 8.699-.75a.88.88 0 0 0 .676-.824V33.074c0-.449-.375-.824-.824-.824zM34.5 38.625V42h-2.25v-3.375c-.449-.375-.75-.898-.75-1.5 0-1.051.824-1.875 1.875-1.875s1.875.824 1.875 1.875c0 .602-.301 1.125-.75 1.5zm3-6.375h-8.25v-2.625c0-2.25 1.875-4.125 4.125-4.125s4.125 1.875 4.125 4.125zm0 0"/></svg>
